assets/img/braze_icons/grid-dots-outer.svg

<svg fill="none" height="24" viewBox="0 0 24 24" width="24" xmlns="http://www.w3.org/2000/svg"><g clip-rule="evenodd" fill="#801ed7" fill-rule="evenodd"><path d="m6.5 12c0-.5523.44772-1 1-1h.01c.55229 0 1 .4477 1 1s-.44771 1-1 1h-.01c-.55228 0-1-.4477-1-1z"/><path d="m15.5 12c0-.5523.4477-1 1-1h.01c.5523 0 1 .4477 1 1s-.4477 1-1 1h-.01c-.5523 0-1-.4477-1-1z"/><path d="m11 12c0-.5523.4477-1 1-1h.01c.5523 0 1 .4477 1 1s-.4477 1-1 1h-.01c-.5523 0-1-.4477-1-1z"/><path d="m11 16.5c0-.5523.4477-1 1-1h.01c.5523 0 1 .4477 1 1s-.4477 1-1 1h-.01c-.5523 0-1-.4477-1-1z"/><path d="m11 7.5c0-.55228.4477-1 1-1h.01c.5523 0 1 .44772 1 1 0 .55229-.4477 1-1 1h-.01c-.5523 0-1-.44771-1-1z"/><path d="m7.7587 2h8.4826c.805-.00001 1.4693-.00002 2.0105.0442.5621.04592 1.0788.14449 1.5642.39178.7526.38349 1.3645.99541 1.748 1.74806.2473.48534.3459 1.00204.3918 1.56414.0442.54119.0442 1.20554.0442 2.0105v8.48262c0 .805 0 1.4693-.0442 2.0105-.0459.5621-.1445 1.0788-.3918 1.5642-.3835.7526-.9954 1.3645-1.748 1.748-.4854.2473-1.0021.3459-1.5642.3918-.5412.0442-1.2056.0442-2.0106.0442h-8.48252c-.80496 0-1.46932 0-2.01051-.0442-.56209-.0459-1.0788-.1445-1.56413-.3918-.75265-.3835-1.36457-.9954-1.74807-1.748-.24729-.4854-.34585-1.0021-.39178-1.5642-.04421-.5412-.0442-1.2055-.04419-2.0105v-8.48259c-.00001-.80498-.00002-1.46934.04419-2.01054.04593-.56209.14449-1.0788.39179-1.56413.38349-.75265.99541-1.36457 1.74806-1.74807.48533-.24729 1.00204-.34585 1.56414-.39178.54119-.04421 1.20555-.0442 2.01052-.04419zm-1.84766 2.03755c-.43842.03582-.66262.10075-.81902.18044-.37632.19174-.68229.49771-.87403.87403-.07969.1564-.14462.3806-.18044.81902-.03677.45009-.03755 1.03238-.03755 1.88896v8.4c0 .8566.00078 1.4389.03755 1.889.03582.4384.10075.6626.18044.819.19174.3763.49771.6823.87403.874.1564.0797.3806.1446.81902.1804.45009.0368 1.03238.0376 1.88896.0376h8.4c.8566 0 1.4389-.0008 1.889-.0376.4384-.0358.6626-.1007.819-.1804.3763-.1917.6823-.4977.874-.874.0797-.1564.1446-.3806.1804-.819.0368-.4501.0376-1.0324.0376-1.889v-8.4c0-.85658-.0008-1.43887-.0376-1.88896-.0358-.43842-.1007-.66262-.1804-.81902-.1917-.37632-.4977-.68228-.874-.87403-.1564-.07969-.3806-.14462-.819-.18044-.4501-.03677-1.0324-.03755-1.889-.03755h-8.4c-.85658 0-1.43887.00078-1.88896.03755z"/></g></svg>

<svg width="24" height="24" viewBox="0 0 24 24" fill="none" xmlns="http://www.w3.org/2000/svg">
<path fill-rule="evenodd" clip-rule="evenodd" d="M6.5 12C6.5 11.4477 6.94772 11 7.5 11H7.51C8.06229 11 8.51 11.4477 8.51 12C8.51 12.5523 8.06229 13 7.51 13H7.5C6.94772 13 6.5 12.5523 6.5 12Z" fill="#801ED7"/>
<path fill-rule="evenodd" clip-rule="evenodd" d="M15.5 12C15.5 11.4477 15.9477 11 16.5 11H16.51C17.0623 11 17.51 11.4477 17.51 12C17.51 12.5523 17.0623 13 16.51 13H16.5C15.9477 13 15.5 12.5523 15.5 12Z" fill="#801ED7"/>
<path fill-rule="evenodd" clip-rule="evenodd" d="M11 12C11 11.4477 11.4477 11 12 11H12.01C12.5623 11 13.01 11.4477 13.01 12C13.01 12.5523 12.5623 13 12.01 13H12C11.4477 13 11 12.5523 11 12Z" fill="#801ED7"/>
<path fill-rule="evenodd" clip-rule="evenodd" d="M11 16.5C11 15.9477 11.4477 15.5 12 15.5H12.01C12.5623 15.5 13.01 15.9477 13.01 16.5C13.01 17.0523 12.5623 17.5 12.01 17.5H12C11.4477 17.5 11 17.0523 11 16.5Z" fill="#801ED7"/>
<path fill-rule="evenodd" clip-rule="evenodd" d="M11 7.5C11 6.94772 11.4477 6.5 12 6.5H12.01C12.5623 6.5 13.01 6.94772 13.01 7.5C13.01 8.05229 12.5623 8.5 12.01 8.5H12C11.4477 8.5 11 8.05229 11 7.5Z" fill="#801ED7"/>
<path fill-rule="evenodd" clip-rule="evenodd" d="M7.7587 2L16.2413 2C17.0463 1.99999 17.7106 1.99998 18.2518 2.0442C18.8139 2.09012 19.3306 2.18869 19.816 2.43598C20.5686 2.81947 21.1805 3.43139 21.564 4.18404C21.8113 4.66938 21.9099 5.18608 21.9558 5.74818C22 6.28937 22 6.95372 22 7.75868V16.2413C22 17.0463 22 17.7106 21.9558 18.2518C21.9099 18.8139 21.8113 19.3306 21.564 19.816C21.1805 20.5686 20.5686 21.1805 19.816 21.564C19.3306 21.8113 18.8139 21.9099 18.2518 21.9558C17.7106 22 17.0462 22 16.2412 22L7.75868 22C6.95372 22 6.28936 22 5.74817 21.9558C5.18608 21.9099 4.66937 21.8113 4.18404 21.564C3.43139 21.1805 2.81947 20.5686 2.43597 19.816C2.18868 19.3306 2.09012 18.8139 2.04419 18.2518C1.99998 17.7106 1.99999 17.0463 2 16.2413L2 7.75871C1.99999 6.95373 1.99998 6.28937 2.04419 5.74817C2.09012 5.18608 2.18868 4.66937 2.43598 4.18404C2.81947 3.43139 3.43139 2.81947 4.18404 2.43597C4.66937 2.18868 5.18608 2.09012 5.74818 2.04419C6.28937 1.99998 6.95373 1.99999 7.7587 2ZM5.91104 4.03755C5.47262 4.07337 5.24842 4.1383 5.09202 4.21799C4.7157 4.40973 4.40973 4.7157 4.21799 5.09202C4.1383 5.24842 4.07337 5.47262 4.03755 5.91104C4.00078 6.36113 4 6.94342 4 7.8V16.2C4 17.0566 4.00078 17.6389 4.03755 18.089C4.07337 18.5274 4.1383 18.7516 4.21799 18.908C4.40973 19.2843 4.7157 19.5903 5.09202 19.782C5.24842 19.8617 5.47262 19.9266 5.91104 19.9624C6.36113 19.9992 6.94342 20 7.8 20L16.2 20C17.0566 20 17.6389 19.9992 18.089 19.9624C18.5274 19.9266 18.7516 19.8617 18.908 19.782C19.2843 19.5903 19.5903 19.2843 19.782 18.908C19.8617 18.7516 19.9266 18.5274 19.9624 18.089C19.9992 17.6389 20 17.0566 20 16.2V7.8C20 6.94342 19.9992 6.36113 19.9624 5.91104C19.9266 5.47262 19.8617 5.24842 19.782 5.09202C19.5903 4.7157 19.2843 4.40974 18.908 4.21799C18.7516 4.1383 18.5274 4.07337 18.089 4.03755C17.6389 4.00078 17.0566 4 16.2 4L7.8 4C6.94342 4 6.36113 4.00078 5.91104 4.03755Z" fill="#801ED7"/>
</svg>
